X:1
T:Taku Miners
M:6/8
L:1/8
K:E
 E3/2 E/2| E2 B,2 G3/2 G/2| G2 E2 E3/2 G/2| B2 B2 A3/2 G/2| F4 F3/2 G/2|\
 A2 A3/2 A/2 G3/2 F/2| G2 E2 E3/2 G/2| F2 B,2 D3/2 F/2| E4 E3/2 E/2|\
 E2 B,2 G3/2 G/2| G2 E2 E3/2 G/2| B2 B2 A3/2 G/2| F4 F3/2 G/2| A2 A2 G3/2 F/2|\
 G2 E2 E3/2 G/2| F2 B,2 D3/2 F/2| E6|
M:6/8
 E2 E E2 E| G2 G B2 G| AFF F2 F| A2 A c2 A| GEE| EEE| CCC A2 C| B,B,B, F2 D|\
 FEE E3|

